src/images/icons/financial-desc.svg

<svg width="102" height="104" viewBox="0 0 102 104" fill="none" xmlns="http://www.w3.org/2000/svg">
<g clip-path="url(#clip0_1_3438)">
<path d="M25.8127 48.6131C25.8127 49.1484 25 49.1484 25 48.6131C25 37.2311 34.2311 28 45.6131 28C57 28 66.2263 37.2311 66.2263 48.6131C66.2263 49.1484 65.4185 49.1484 65.4185 48.6131C65.4185 40.9197 52.7762 40.9148 52.7762 48.6131C52.7762 49.1484 51.944 49.1484 51.944 48.6131C51.944 40.9392 39.2822 40.9392 39.2822 48.6131C39.2822 49.1484 38.4501 49.1484 38.4501 48.6131C38.4501 40.9538 25.8127 40.9002 25.8127 48.6131ZM38.5231 45.6253C38.7421 41.1971 39.438 37.2263 40.4501 34.1946C41.2579 31.7859 42.2798 29.9562 43.438 28.9294C34.747 29.8783 27.7105 36.4672 26.1387 45.0122C29.1314 40.6959 36.0414 41.0414 38.5231 45.6253ZM51.8808 45.4258C51.6569 41.1679 50.9805 37.3577 50.0073 34.4526C47.4963 26.9343 43.7299 26.9343 41.219 34.4526C40.2457 37.3577 39.5742 41.1679 39.3455 45.4258C42.0462 40.837 49.18 40.837 51.8808 45.4258ZM65.0876 45.0122C63.5207 36.4672 56.4842 29.8783 47.7883 28.9294C48.9513 29.9562 49.9684 31.7859 50.7762 34.1946C51.7883 37.2263 52.4842 41.1971 52.7032 45.6253C55.1995 41.017 62.1289 40.7445 65.0876 45.0122Z" fill="#FF6B09"/>
<path d="M42.9077 58.0449V53.8591C42.1534 54.3604 41.5597 55.1343 41.5597 56.0785C41.5597 56.9984 42.1631 57.6068 42.9077 58.0449ZM43.7203 59.3444C42.2751 58.6825 40.752 57.9086 40.752 56.0785C40.752 54.19 42.1875 53.2458 43.7203 52.54V59.3444Z" fill="#FF6B09"/>
<path d="M48.3185 64.36V68.5936C49.0825 68.0875 49.6811 67.309 49.6811 66.3649C49.6811 65.4355 49.0679 64.8077 48.3185 64.36ZM47.5107 63.0559C48.9609 63.7274 50.4937 64.5255 50.4937 66.3649C50.4937 68.2579 49.0485 69.2019 47.5107 69.9026V63.0559Z" fill="#FF6B09"/>
<path d="M48.3188 49.095C51.6472 49.8638 55.0682 52.3554 55.0682 56.0781C55.0682 59.2655 49.6813 59.1487 49.6813 56.0781C49.6813 55.1292 49.0828 54.3506 48.3188 53.8493V59.8057C51.3991 60.813 55.0779 62.6184 55.0779 66.3655C55.0779 70.0931 51.657 72.5797 48.3188 73.3437C48.3042 76.8913 42.9173 76.8864 42.9076 73.3389C41.0098 72.9009 39.3601 72.0152 38.1679 70.8425C36.9173 69.6064 36.1777 68.0541 36.1777 66.3655C36.1777 63.2267 41.5596 63.2267 41.5596 66.3655C41.5596 67.3047 42.1533 68.0784 42.9076 68.5796V62.6282C39.8516 61.6403 36.1533 59.7814 36.1533 56.0684C36.1533 52.3408 39.5742 49.8541 42.9076 49.0901C42.9222 45.5426 48.309 45.5474 48.3188 49.095ZM43.7202 49.1047V49.7519C40.5523 50.3797 36.9611 52.4089 36.9611 56.0684C36.9611 59.5867 40.9027 61.1634 43.7202 62.0345V69.8984C42.1971 69.2025 40.7519 68.2633 40.7519 66.3655C40.7519 64.2924 36.9854 64.2924 36.9854 66.3655C36.9854 67.8302 37.6375 69.1831 38.7373 70.2634C40.1339 71.6454 41.8273 72.3024 43.7202 72.6771V73.3291C43.7202 75.8256 47.511 75.8256 47.511 73.3291V72.6819C50.6886 72.0493 54.2652 70.0201 54.2652 66.3655C54.2652 62.8131 50.3334 61.2851 47.511 60.3945V53.1632V52.5354C49.039 53.2313 50.494 54.1705 50.494 56.0781C50.494 58.0976 54.2555 58.1804 54.2555 56.0781C54.2555 52.4235 50.6837 50.3894 47.511 49.7568V49.1047C47.511 46.6083 43.7202 46.6083 43.7202 49.1047Z" fill="#FF6B09"/>
</g>
<path d="M101 15V1H1V103H101V89" stroke="#FF6B09" stroke-width="2"/>
<defs>
<clipPath id="clip0_1_3438">
<rect width="42" height="48" fill="white" transform="translate(25 28)"/>
</clipPath>
</defs>
</svg>

<svg width="102" height="104" fill="none" xmlns="http://www.w3.org/2000/svg"><g clip-path="url(#a)" fill="#FF6B09"><path d="M25.813 48.613c0 .535-.813.535-.813 0C25 37.231 34.231 28 45.613 28 57 28 66.226 37.231 66.226 48.613c0 .535-.808.535-.808 0 0-7.693-12.642-7.698-12.642 0 0 .535-.832.535-.832 0 0-7.674-12.662-7.674-12.662 0 0 .535-.832.535-.832 0 0-7.66-12.637-7.713-12.637 0zm12.71-2.988c.22-4.428.915-8.399 1.927-11.43.808-2.41 1.83-4.239 2.988-5.266-8.691.95-15.728 7.538-17.3 16.083 2.993-4.316 9.903-3.97 12.385.613zm13.358-.2c-.224-4.257-.9-8.067-1.874-10.972-2.51-7.519-6.277-7.519-8.788 0-.973 2.905-1.645 6.715-1.873 10.973 2.7-4.589 9.834-4.589 12.535 0zm13.207-.413c-1.567-8.545-8.604-15.134-17.3-16.083 1.163 1.027 2.18 2.857 2.988 5.266 1.012 3.031 1.708 7.002 1.927 11.43 2.496-4.608 9.426-4.88 12.385-.613zM42.908 58.045v-4.186c-.755.501-1.348 1.275-1.348 2.22 0 .92.603 1.528 1.348 1.966zm.812 1.3c-1.445-.663-2.968-1.436-2.968-3.267 0-1.888 1.435-2.832 2.968-3.538v6.804zM48.319 64.36v4.234c.764-.506 1.362-1.285 1.362-2.23 0-.928-.613-1.556-1.362-2.004zm-.808-1.304c1.45.671 2.983 1.47 2.983 3.309 0 1.893-1.446 2.837-2.983 3.538v-6.847z"/><path d="M48.319 49.095c3.328.769 6.75 3.26 6.75 6.983 0 3.188-5.388 3.07-5.388 0 0-.949-.598-1.727-1.362-2.229v5.957c3.08 1.007 6.759 2.812 6.759 6.56 0 3.727-3.421 6.214-6.76 6.978-.014 3.547-5.4 3.542-5.41-.005-1.898-.438-3.548-1.324-4.74-2.496-1.25-1.237-1.99-2.789-1.99-4.478 0-3.138 5.382-3.138 5.382 0 0 .94.593 1.713 1.348 2.215v-5.952c-3.056-.988-6.755-2.847-6.755-6.56 0-3.727 3.421-6.214 6.755-6.978.014-3.547 5.401-3.543 5.41.005zm-4.599.01v.647c-3.168.628-6.759 2.657-6.759 6.316 0 3.519 3.942 5.095 6.76 5.967v7.863c-1.524-.695-2.97-1.635-2.97-3.532 0-2.074-3.766-2.074-3.766 0 0 1.464.653 2.817 1.752 3.897 1.397 1.382 3.09 2.04 4.983 2.414v.652c0 2.497 3.791 2.497 3.791 0v-.647c3.178-.633 6.754-2.662 6.754-6.317 0-3.552-3.932-5.08-6.754-5.97v-7.86c1.528.696 2.983 1.636 2.983 3.543 0 2.02 3.761 2.102 3.761 0 0-3.655-3.571-5.689-6.744-6.321v-.652c0-2.497-3.79-2.497-3.79 0z"/></g><path d="M101 15V1H1v102h100V89" stroke="#FF6B09" stroke-width="2"/><defs><clipPath id="a"><path fill="#fff" transform="translate(25 28)" d="M0 0h42v48H0z"/></clipPath></defs></svg>
